X: 45
T:Lady Harriot Hope's Reel (#241)
M:4/4
L:1/8
S:McGoun's Repository, 1803
R:Reel
K:F
A|:FAcf dcBA|(3fga g>f gGGA|FAcf dcBA|BGcA F/2F/2F F2:||
fcfg (3fga gf|ecgc acgc|fcfg (3fga gf|dfeg (3fff f2|
fcfg (3fga gf|gfga baga|fdcB AfdB|cABG F/2F/2F F2||
%
% I saw this tune in manuscript written in West Cork early in the 
% 19th Century. The fact remains that it had been preserved in
% printer's ink in Bremner's Collection of Scots Reels, or Country
% Dances,  Edinburgh 1757. Its oldtime popularity is attested by 
% its inclusion in several other worthy Collections long out of print,
% such as The Caledonian Muse 1785; and Neil Gow's and Sons' 
% Complete Repository etc., 1805.

